build/svg/cmd/sc_dbtablerename.svg

<svg xmlns="http://www.w3.org/2000/svg" viewBox="0 0 16 16"><path fill="#fff" d="M3 3h10v10H3z"/><path d="M5 2C3 2 2 2 2 4v8c0 2 1 2 3 2h6c2 0 3 0 3-2V4c0-2-1-2-3-2zM3 6h3v3H3zm4 0h2v3H7zm3 0h3v3h-3zm-7 4h3v3H5c-1 0-2 0-2-1zm4 0h2v3H7zm3 0h3v2c0 1-1 1-2 1h-1z" fill="#6d6d6d"/><path d="M9 6v2h2v5H9v2h6v-2h-2V8h2V6z" opacity=".6" stroke="#000" stroke-width="2" stroke-linejoin="round"/><path d="M9 6v2h2v5H9v2h6v-2h-2V8h2V6z" fill="#aee3f8"/></svg>

<?xml version="1.0" encoding="UTF-8" standalone="no"?>
<svg
   xmlns:dc="http://purl.org/dc/elements/1.1/"
   xmlns:cc="http://creativecommons.org/ns#"
   xmlns:rdf="http://www.w3.org/1999/02/22-rdf-syntax-ns#"
   xmlns:svg="http://www.w3.org/2000/svg"
   xmlns="http://www.w3.org/2000/svg"
   xmlns:sodipodi="http://sodipodi.sourceforge.net/DTD/sodipodi-0.dtd"
   xmlns:inkscape="http://www.inkscape.org/namespaces/inkscape"
   viewBox="0 0 16 16"
   version="1.1"
   id="svg6"
   sodipodi:docname="sc_dbtablerename.svg"
   inkscape:version="0.92.5 (2060ec1f9f, 2020-04-08)"
   inkscape:export-filename="/home/jupiter007/Libreoffice yaru theme fullcolor/build/cmd/sc_dbtablerename.png"
   inkscape:export-xdpi="95"
   inkscape:export-ydpi="95">
  <metadata
     id="metadata12">
    <rdf:RDF>
      <cc:Work
         rdf:about="">
        <dc:format>image/svg+xml</dc:format>
        <dc:type
           rdf:resource="http://purl.org/dc/dcmitype/StillImage" />
      </cc:Work>
    </rdf:RDF>
  </metadata>
  <defs
     id="defs10" />
  <sodipodi:namedview
     pagecolor="#ffffff"
     bordercolor="#666666"
     borderopacity="1"
     objecttolerance="10"
     gridtolerance="10"
     guidetolerance="10"
     inkscape:pageopacity="0"
     inkscape:pageshadow="2"
     inkscape:window-width="1920"
     inkscape:window-height="1011"
     id="namedview8"
     showgrid="true"
     inkscape:zoom="41.7193"
     inkscape:cx="6.0142357"
     inkscape:cy="7.5263678"
     inkscape:window-x="1920"
     inkscape:window-y="32"
     inkscape:window-maximized="1"
     inkscape:current-layer="svg6">
    <inkscape:grid
       type="xygrid"
       id="grid822" />
  </sodipodi:namedview>
  <rect
     style="opacity:1;fill:#ffffff;fill-opacity:1;stroke:none;stroke-width:2;stroke-linecap:round;stroke-linejoin:round;stroke-miterlimit:4;stroke-dasharray:none;stroke-opacity:1"
     id="rect820"
     width="10"
     height="10"
     x="3"
     y="2.9999998" />
  <path
     d="m 5,1.9999999 c -2,0 -3,0 -3,2 V 12 c 0,2 1,2 3,2 h 6 c 2,0 3,0 3,-2 V 3.9999999 c 0,-2 -1,-2 -3,-2 z M 3,5.9999998 H 6 V 8.9999999 H 3 Z m 4,0 H 9 V 8.9999999 H 7 Z m 3,0 h 3 V 8.9999999 H 10 Z M 3,9.9999999 H 6 V 13 H 5 C 4,13 3,13 3,12 Z m 4,0 H 9 V 13 H 7 Z m 3,0 h 3 V 12 c 0,1 -1,1 -2,1 h -1 z"
     id="path2"
     inkscape:connector-curvature="0"
     style="fill:#6d6d6d;fill-opacity:1"
     sodipodi:nodetypes="ccccccccccccccccccccccccccccccccccccccccc" />
  <path
     sodipodi:nodetypes="ccccccccccccc"
     style="opacity:0.6;fill:#000000;stroke:#000000;stroke-width:2;stroke-linejoin:round;stroke-miterlimit:4;stroke-dasharray:none"
     inkscape:connector-curvature="0"
     id="path822"
     d="m 9,6 v 2 h 2 v 5 H 9 v 2 h 6 V 13 H 13 V 8 h 2 V 6 Z" />
  <path
     d="m 9,6 v 2 h 2 v 5 H 9 v 2 h 6 V 13 H 13 V 8 h 2 V 6 Z"
     id="path4"
     inkscape:connector-curvature="0"
     style="fill:#aee3f8;fill-opacity:1"
     sodipodi:nodetypes="ccccccccccccc" />
</svg>
